library/docs/img/sponsor-large.svg

<svg xmlns="http://www.w3.org/2000/svg" style="background-color:#fff" width="641" height="241" viewBox="-0.5 -0.5 641 241">
    <path fill="#fff" stroke="#000" pointer-events="none" d="M0 0h640v240H0z"/>
    <path fill="#fff" stroke="#999" pointer-events="none" d="M0 0h640v240H0z"/>
    <path d="M0 0l640 240M0 240L640 0" fill="none" stroke="#999" stroke-miterlimit="10" pointer-events="none"/>
    <path fill="#fff" stroke="#000" pointer-events="none" d="M120 10h160v210H120z"/>
    <path d="M130 190c0-5.52 4.48-10 10-10h120c5.52 0 10 4.48 10 10v10c0 5.52-4.48 10-10 10H140c-5.52 0-10-4.48-10-10z" fill="#008cff" stroke="#666" stroke-miterlimit="10" pointer-events="none"/>
    <g transform="translate(173.5 189.5)">
        <text x="26" y="10" fill="#fff" text-anchor="middle" font-size="10" font-family="Helvetica" font-weight="bold">
            Lees meer
        </text>
    </g>
    <path fill="#fff" stroke="#999" pointer-events="none" d="M130 20h140v30H130z"/>
    <path d="M130 20l140 30m-140 0l140-30" fill="none" stroke="#999" stroke-miterlimit="10" pointer-events="none"/>
    <g transform="translate(131.5 61.5)">
        <text x="0" y="34" text-anchor="left" font-size="12" font-family="Helvetica">
            Lorem ipsum dolor sit
        </text>
        <text x="0" y="48" text-anchor="left" font-size="12" font-family="Helvetica">
            amet, consectetur
        </text>
        <text x="0" y="62" text-anchor="left" font-size="12" font-family="Helvetica">
            adipisicing elit, sed do
        </text>
        <text x="0" y="76" text-anchor="left" font-size="12" font-family="Helvetica">
            eiusmod tempor…
        </text>
    </g>
    <g transform="translate(131.5 61.5)">
        <text x="27" y="12" text-anchor="middle" font-size="12" font-family="Helvetica" font-weight="bold">
            Acme Inc
        </text>
    </g>
    <ellipse cx="370" cy="25" rx="10" ry="10" fill="#fff" stroke="#000" pointer-events="none"/>
    <g transform="translate(366.5 19.5)">
        <text x="3" y="10" text-anchor="middle" font-size="10" font-family="Helvetica">
            1
        </text>
    </g>
    <ellipse cx="250" cy="35" rx="10" ry="10" fill="#fff" stroke="#000" pointer-events="none"/>
    <g transform="translate(246.5 29.5)">
        <text x="3" y="10" text-anchor="middle" font-size="10" font-family="Helvetica">
            2
        </text>
    </g>
    <ellipse cx="210" cy="70" rx="10" ry="10" fill="#fff" stroke="#000" pointer-events="none"/>
    <g transform="translate(206.5 64.5)">
        <text x="3" y="10" text-anchor="middle" font-size="10" font-family="Helvetica">
            3
        </text>
    </g>
    <ellipse cx="200" cy="115" rx="10" ry="10" fill="#fff" stroke="#000" pointer-events="none"/>
    <g transform="translate(196.5 109.5)">
        <text x="3" y="10" text-anchor="middle" font-size="10" font-family="Helvetica">
            4
        </text>
    </g>
    <ellipse cx="250" cy="195" rx="10" ry="10" fill="#fff" stroke="#000" pointer-events="none"/>
    <g transform="translate(246.5 189.5)">
        <text x="3" y="10" text-anchor="middle" font-size="10" font-family="Helvetica">
            5
        </text>
    </g>
</svg>

<!DOCTYPE svg PUBLIC "-//W3C//DTD SVG 1.1//EN" "http://www.w3.org/Graphics/SVG/1.1/DTD/svg11.dtd">
<svg xmlns="http://www.w3.org/2000/svg" style="background-color: rgb(255, 255, 255);" xmlns:xlink="http://www.w3.org/1999/xlink" version="1.1" width="641px" height="241px" viewBox="-0.5 -0.5 641 241" content="&lt;mxfile modified=&quot;2019-01-29T13:16:32.401Z&quot; host=&quot;www.draw.io&quot; agent=&quot;Mozilla/5.0 (X11; Linux x86_64; rv:66.0) Gecko/20100101 Firefox/66.0&quot; version=&quot;10.1.5-2&quot; etag=&quot;0X38J75ooxrwrreuTgDc&quot; type=&quot;device&quot;&gt;&lt;diagram id=&quot;6ch9j7bUTV51dR0Dfl9i&quot;&gt;7Vhdb5swFP01PK4C85H0sU3btVInTUqlPbtwA1ZtjMA06X79rsEkAZM2mkiXTeMF+/j665xzzYfjL8Tma0mL7JtMgDvETTaOf+MQ4gUkwptG3lpkNrtsgbRkiQnaAUv2EwzoGrRmCVS9QCUlV6zog7HMc4hVD6NlKdf9sJXk/VkLmoIFLGPKbfQHS1TWonMy2+H3wNKsm9mLzP4E7YLNTqqMJnK9B/m3jr8opVRtSWwWwDV5HS9tv7sDrduFlZCrYzqQtsMr5bXZm1mXeus2W8o6T0DHu45/vc6YgmVBY926RnkRy5TgWPOwaIaDUsHm4JK87UbRISAFqPINQ0yHuaHGeMOPTH29YzoKDJbtsUw6kBp10+3QOwKwYDgY58P/mA+9OYZeeKTPwL/Liikmc2x6lkpJgRxsNdV8JbTKtuRRzlIdGiMVUPaZ64a9MjFKamorVcqXrcm8dvRCr0RsUp1cF0LGL3Vx0VRYXF1UTBQcHmK9JtN9Ibksm8X7l82FLSvG+R6+aq5/QMDg/AxN3AEhM5sQLxojxJuAkNAi5BHw7MSzCNCCQ25G/fYbbj7g0ucacySvzH3MoFFzaYPKXI0ZVFCWP8Gmoci/bgdamg00ypq+5qnhuV3dxHi2+V13Hjdjj3lhCgN4fQOEwYgBxjLCn0D/6P+JNrmA/vwTBZyNCBhxpZVgr1hMdfFRliB0p6Kq9T1piECVmdLT46QOWbRvRBW+EYGqdStNWMEqFrM8xRpwZqIq1FePoUFWV0LqqgJR4Ji3xMHdX0XdInD5e+uwvKWaVL2uMKlwlidtgZsv4TtyfXAed4bjsFKDTCemfkcF41qpe+CvoC04mC6XOVhWMuAJ3BKER7olmsAtc8stV7EARB7y+K8Xp3+On0ApcqRSZAKlLi2lPEsg7IEZDR8zP3ziTUBOEAxfW0KLHHIibjpd3j/0yJFn0J9k0SfDR8cnsuhZLPpnRc7wU2Es/05Gjv3pG5wXObMBOdEnOsf+Dg7PipxhWoXBycjB6u5/TNO291fLv/0F&lt;/diagram&gt;&lt;/mxfile&gt;"><defs/><rect x="0" y="0" width="640" height="240" fill="#ffffff" stroke="#000000" pointer-events="none"/><rect x="0" y="0" width="640" height="240" fill="#ffffff" stroke="#999999" pointer-events="none"/><path d="M 0 0 L 640 240 M 0 240 L 640 0" fill="none" stroke="#999999" stroke-miterlimit="10" pointer-events="none"/><rect x="120" y="10" width="160" height="210" fill="#ffffff" stroke="#000000" pointer-events="none"/><path d="M 130 190 C 130 184.48 134.48 180 140 180 L 260 180 C 265.52 180 270 184.48 270 190 L 270 200 C 270 205.52 265.52 210 260 210 L 140 210 C 134.48 210 130 205.52 130 200 Z" fill="#008cff" stroke="#666666" stroke-miterlimit="10" pointer-events="none"/><g fill="#666666" font-family="Arial,Helvetica" font-weight="bold" text-anchor="middle" font-size="17px"/><g transform="translate(173.5,189.5)"><switch><foreignObject style="overflow:visible;" pointer-events="all" width="52" height="10" requiredFeatures="http://www.w3.org/TR/SVG11/feature#Extensibility"><div xmlns="http://www.w3.org/1999/xhtml" style="display: inline-block; font-size: 10px; font-family: Helvetica; color: rgb(255, 255, 255); line-height: 1.2; vertical-align: top; width: 53px; white-space: nowrap; overflow-wrap: normal; font-weight: bold; text-align: center;"><div xmlns="http://www.w3.org/1999/xhtml" style="display:inline-block;text-align:inherit;text-decoration:inherit;">Lees meer</div></div></foreignObject><text x="26" y="10" fill="#ffffff" text-anchor="middle" font-size="10px" font-family="Helvetica" font-weight="bold">Lees meer</text></switch></g><rect x="130" y="20" width="140" height="30" fill="#ffffff" stroke="#999999" pointer-events="none"/><path d="M 130 20 L 270 50 M 130 50 L 270 20" fill="none" stroke="#999999" stroke-miterlimit="10" pointer-events="none"/><g transform="translate(131.5,91.5)"><switch><foreignObject style="overflow:visible;" pointer-events="all" width="138" height="56" requiredFeatures="http://www.w3.org/TR/SVG11/feature#Extensibility"><div xmlns="http://www.w3.org/1999/xhtml" style="display: inline-block; font-size: 12px; font-family: Helvetica; color: rgb(0, 0, 0); line-height: 1.2; vertical-align: top; width: 138px; white-space: normal; overflow-wrap: normal;"><div xmlns="http://www.w3.org/1999/xhtml" style="display:inline-block;text-align:inherit;text-decoration:inherit;"><div>Lorem ipsum dolor sit amet, consectetur adipisicing elit, sed do eiusmod tempor…</div></div></div></foreignObject><text x="69" y="34" fill="#000000" text-anchor="middle" font-size="12px" font-family="Helvetica">[Not supported by viewer]</text></switch></g><g transform="translate(131.5,61.5)"><switch><foreignObject style="overflow:visible;" pointer-events="all" width="54" height="12" requiredFeatures="http://www.w3.org/TR/SVG11/feature#Extensibility"><div xmlns="http://www.w3.org/1999/xhtml" style="display: inline-block; font-size: 12px; font-family: Helvetica; color: rgb(0, 0, 0); line-height: 1.2; vertical-align: top; width: 55px; white-space: nowrap; overflow-wrap: normal; font-weight: bold;"><div xmlns="http://www.w3.org/1999/xhtml" style="display:inline-block;text-align:inherit;text-decoration:inherit;">Acme Inc</div></div></foreignObject><text x="27" y="12" fill="#000000" text-anchor="middle" font-size="12px" font-family="Helvetica" font-weight="bold">Acme Inc</text></switch></g><ellipse cx="370" cy="25" rx="10" ry="10" fill="#ffffff" stroke="#000000" pointer-events="none"/><g transform="translate(366.5,19.5)"><switch><foreignObject style="overflow:visible;" pointer-events="all" width="6" height="10" requiredFeatures="http://www.w3.org/TR/SVG11/feature#Extensibility"><div xmlns="http://www.w3.org/1999/xhtml" style="display: inline-block; font-size: 10px; font-family: Helvetica; color: rgb(0, 0, 0); line-height: 1.2; vertical-align: top; width: 7px; white-space: nowrap; overflow-wrap: normal; text-align: center;"><div xmlns="http://www.w3.org/1999/xhtml" style="display:inline-block;text-align:inherit;text-decoration:inherit;">1</div></div></foreignObject><text x="3" y="10" fill="#000000" text-anchor="middle" font-size="10px" font-family="Helvetica">1</text></switch></g><ellipse cx="250" cy="35" rx="10" ry="10" fill="#ffffff" stroke="#000000" pointer-events="none"/><g transform="translate(246.5,29.5)"><switch><foreignObject style="overflow:visible;" pointer-events="all" width="6" height="10" requiredFeatures="http://www.w3.org/TR/SVG11/feature#Extensibility"><div xmlns="http://www.w3.org/1999/xhtml" style="display: inline-block; font-size: 10px; font-family: Helvetica; color: rgb(0, 0, 0); line-height: 1.2; vertical-align: top; width: 7px; white-space: nowrap; overflow-wrap: normal; text-align: center;"><div xmlns="http://www.w3.org/1999/xhtml" style="display:inline-block;text-align:inherit;text-decoration:inherit;"><div>2</div></div></div></foreignObject><text x="3" y="10" fill="#000000" text-anchor="middle" font-size="10px" font-family="Helvetica">[Not supported by viewer]</text></switch></g><ellipse cx="210" cy="70" rx="10" ry="10" fill="#ffffff" stroke="#000000" pointer-events="none"/><g transform="translate(206.5,64.5)"><switch><foreignObject style="overflow:visible;" pointer-events="all" width="6" height="10" requiredFeatures="http://www.w3.org/TR/SVG11/feature#Extensibility"><div xmlns="http://www.w3.org/1999/xhtml" style="display: inline-block; font-size: 10px; font-family: Helvetica; color: rgb(0, 0, 0); line-height: 1.2; vertical-align: top; width: 7px; white-space: nowrap; overflow-wrap: normal; text-align: center;"><div xmlns="http://www.w3.org/1999/xhtml" style="display:inline-block;text-align:inherit;text-decoration:inherit;">3</div></div></foreignObject><text x="3" y="10" fill="#000000" text-anchor="middle" font-size="10px" font-family="Helvetica">3</text></switch></g><ellipse cx="200" cy="115" rx="10" ry="10" fill="#ffffff" stroke="#000000" pointer-events="none"/><g transform="translate(196.5,109.5)"><switch><foreignObject style="overflow:visible;" pointer-events="all" width="6" height="10" requiredFeatures="http://www.w3.org/TR/SVG11/feature#Extensibility"><div xmlns="http://www.w3.org/1999/xhtml" style="display: inline-block; font-size: 10px; font-family: Helvetica; color: rgb(0, 0, 0); line-height: 1.2; vertical-align: top; width: 7px; white-space: nowrap; overflow-wrap: normal; text-align: center;"><div xmlns="http://www.w3.org/1999/xhtml" style="display:inline-block;text-align:inherit;text-decoration:inherit;">4</div></div></foreignObject><text x="3" y="10" fill="#000000" text-anchor="middle" font-size="10px" font-family="Helvetica">4</text></switch></g><ellipse cx="250" cy="195" rx="10" ry="10" fill="#ffffff" stroke="#000000" pointer-events="none"/><g transform="translate(246.5,189.5)"><switch><foreignObject style="overflow:visible;" pointer-events="all" width="6" height="10" requiredFeatures="http://www.w3.org/TR/SVG11/feature#Extensibility"><div xmlns="http://www.w3.org/1999/xhtml" style="display: inline-block; font-size: 10px; font-family: Helvetica; color: rgb(0, 0, 0); line-height: 1.2; vertical-align: top; width: 7px; white-space: nowrap; overflow-wrap: normal; text-align: center;"><div xmlns="http://www.w3.org/1999/xhtml" style="display:inline-block;text-align:inherit;text-decoration:inherit;">5</div></div></foreignObject><text x="3" y="10" fill="#000000" text-anchor="middle" font-size="10px" font-family="Helvetica">5</text></switch></g></svg>
